X: 582
T: Night Was Calm., The
T: do .bi an oi.d.ce cuin.
R:air
N:"Slow.""Collected from J. O'Neill."
Z:transcribed by J.B.Walsh walsh@math.ubc.ca
M:2/4
L:1/16
%Q:70
K:G
(GA/B/)|c3e d2c2|B3A G2ED|E3F G2G2|G6 (Bd)|
e3e d2B2|g2B2 A2GA|B3c B2G2|A6 (Bd)|
e3e e2B2|g2B2 A2GA|B3c B2G2|E6 (EG)|
A3B c2A2|B3A G2E2|D3E G2G2|G6||


